X:41
T:Les Tourniquets
C:Gabrielle Létourneau
N:© Gabrielle Létourneau
Z:gabie.letourneau@hotmail.ca
R:waltz
M:3/4
L:1/8
K:Bm
f3e ce | g3e ce | fe ce cA | dc BA FA |
f3e ce | g3e ce | fe ce cA | B4B2 ::
FB Bc dB | GB Bc dB |EB Bc dB |GB EdcA|
FB Bc dB | GB Bc dA | fe ce cA | B4B2 :|
